X:1
T:James Gibb editions
T:Bone pastor - Tallis
T:#
%%score [ 1 2 3 4 ]
L:1/8
Q:1/4=96
M:4/4
K:F
V:1 treble nm="Soprano" snm="S"
V:2 treble nm="Alto" snm="A"
V:3 treble-8 nm="Tenor" snm="T"
V:4 bass nm="Bass" snm="B"
V:1
"^Thomas Tallis\n(1505-85)""^Bone pastor" F6 F2 | G4 A4- | A2 (A2 G2) F2 | B4 A4 | z2 A4 A2 | %5
w: Bo- ne|pa- stor,|* pa\- * nis|ve- re,|Je- su,|
 c3 c B2 A2- | A2 G2 A4 | z8 | z2 (G2 F2) F2 | B6 A2- | A2 F2 A2 (G2- | GF F4 E2 | F4) z4 | z8 | %14
w: no- stri mi- se\-|* re- re,||Je\- * su,|no- stri|* mi- se- re\-||re:||
 z8 | z2 F2 c4- | c2 (B2 A2 G2 | F2 A2 G4 | G4) z4 | z8 | z2 c4 F2 | (c2 B2 A4) | G2 (F2 E2) D2 | %23
w: |Tu nos|* pa\- * *||sce,||tu nos|pa\- * *|sce, tu * nos|
 (C2 F4) C2 | D2 B,2 C4 | C4 z4 | z8 | z8 | z2 F2 c4- | c2 (B2 A2 G2 | F2 A2 G4 | G4) z4 | z8 | %33
w: pa\- * sce,|nos tu- e-|re:|||Tu nos|* bo\- * *||na||
 z2 c4 F2 | (c2 B2 A4) | G2 (F2 E2) (D2 |[Q:1/4=94] C2[Q:1/4=91] F4)[Q:1/4=88] C2 | %37
w: fac vi-|de\- * *|re in * ter\-|* ra vi-|
[Q:1/4=86] (D2[Q:1/4=84] B,2)[Q:1/4=81] C4 |[Q:1/4=80] C8 |] %39
w: ven\- * ti-|um.|
V:2
 C6 D2 | E4 F4- | F2 (F2 E2) D2 | F4 F4- | F4 z4 | z8 | z2 D4 D2 | F3 F E2 D2- | D2 C2 D2 D2 | %9
w: Bso- ne|pa- stor,|* pa\- * nis|ve- re,|||Je- su,|no- stri mi- se\-|* re- re, Je-|
 B,4 F4- | F2 C2 (F2 E2 | D2 B,2) C4 | C4 z4 | z4 z2 F2 | B6 (A2 | G2 F4 E2 | F4 F2 C2) | D4 (D4 | %18
w: su, no\-|* stri mi\- *|* se- re-|re:|Tu|nos pa\-||* sce, nos|tu- e\-|
 E4 E4) | z2 A4 G2 | (GF) F2 z2 F2- | F2 B,2 F4 |"^," C2 c4 F2 | (c2 B2) A2 G2- | GF (F4 E2) | %25
w: * re,|tu nos|pa\- * sce, tu|* nos pa-|sce, tu nos|pa\- * sce, nos|* tu- e\- *|
 F4 z4 | z4 z2 F2 | B6 (A2 | G2 F4 E2 | F4 F2 C2) | D4 (D4 | E4 E4) | z2 A4 G2 | (GF) F2 z2 F2- | %34
w: re:|Tu|nos bo\-||* na fac|vi- de\-|* re,|fac vi-|de\- * re, fac|
 F2 B,2 F4 |"^," C2 c4 F2 | c2 B2 (A2 G2- | GF F4 E2) | F8 |] %39
w: * vi- de-|re, in ter-|ra vi- ven\- *|* * * ti-|um.|
V:3
 A6 F2 | c4 c4- | c2 c4 A2 | d4 c4- | c4 z2 A2- | A2 A2 d3 c | B2 B2 A4 | A4 z4 | z4 z2 B2 | %9
w: Bo- ne|pa- stor,|* pa- nis|ve- re,|* Je\-|* su, no- stri|mi- se- re-|re,|Je-|
 G4 d4 | (c2 A2) (c4 | BA F2) G4 | F4 c4 | f6 (e2 | d2 c2 B2 c2- | c2 A2 G4) | A2 d2 (c2 G2 | %17
w: su, no-|stri * mi\-|* * se- re-|re: Tu|nos pa\-||* * sce,|tu nos pa\- *|
 A4 =B4 | c2) g4 c2 | (g2 f2 e2 d2) | c8 | A2 d4 (c2- | c2 F2 c2 B2 | A2 d2 c2) G2 | A2 F2 G4 | %25
w: |sce, tu nos|pa\- * * *|sce,|tu nos pa\-||* * * sce,|nos tu- e-|
 A4 c4 | f6 (e2 | d2 c2 B2 c2 | c2 A2 G4 | (A2) d2 c2) G2 | (A4 =B4) | c2 g4 c2 | (g2 f2 e2 d2) | %33
w: re: Tu|nos bo\-||* * na|fac * * vi-|de\- *|re, fac vi-|de\- * * *|
 c8 | A2 d4 c2- | c2 F2 (c2 B2) | (A2 d2) c2 G2 | (A2 F2) G4 | A8 |] %39
w: re,|in ter- ra|* vi- ven\- *|ti- * um, vi-|ven\- * ti-|um.|
V:4
 F,6 D,2 | C,4 F,4- | F,2 (F,2 C,2) D,2 | B,,4 F,4- | F,4 z4 | z8 | z4 D,2 D,2 | D,2 D,2 G,3 F, | %8
w: Bo- ne|pa- stor,|* pa\- * nis|ve- re,|||Je- su,|no- stri mi- se-|
 E,4 D,2 z2 | z2 G,2 D,4 | F,6 C,2 | D,2 D,2 C,4 | F,4 z4 | F,4 B,4- | B,2 (A,2 G,2 F,2 | %15
w: re- re,|Je- su,|no- stri|mi- se- re-|re:|Tu nos|* pa\- * *|
 E,2 F,2 C,4 | F,4) F,2 E,2 | (D,4 G,4) | C,4 z2 C2- | C2 F,2 (C2 B,2) | A,4 (F,2 A,2- | %21
w: |sce, nos tu-|e\- *|re, tu|* nos pa\- *|sce, nos *|
 A,F,) G,2 F,4 | z4 z2 F,2- | F,2 B,,2 F,2 E,2 | D,2 D,2 C,4 | F,4 z4 | F,4 B,4- | %27
w: * tu- e- re,|tu|* nos pa- sce,|nos tu- e-|re:|Tu nos|
 B,2 (A,2 G,2 F,2 | E,2 F,2 C,4 | F,4) F,2 E,2 | (D,4 G,4) | C,4 z2 C2- | C2 F,2 (C2 B,2) | %33
w: * bo\- * *||na, tu nos|bo\- *|na fac|* vi- de\- *|
 A,4 (F,2 A,2- | A,F,) G,2 F,4 | z4 z2 F,2- | F,2 B,,2 F,2 E,2 | D,4 C,4 | [F,,F,]8 |] %39
w: re, fac *|* vi- de- re,|in|* ter- ra vi-|ven- ti-|um.|

